chinaconstructionbank.svg

<svg viewBox="0 0 24 24" xmlns="http://www.w3.org/2000/svg"><path d="M20.7407 9.39241L13.8473 2.50017C12.4201 1.06866 10.6979 1.15813 10.0908 1.2587C4.67201 2.15093 0.536055 6.86813 0.536055 12.5528C0.536055 18.8756 5.65063 24 11.9573 24C18.1177 24 23.1367 19.0761 23.3699 12.9582C23.3724 12.8873 23.3477 12.6769 23.1996 12.5818C23.017 12.4683 22.6535 12.5109 22.6535 12.5109L18.235 12.5109C18.235 12.5109 17.8154 12.5109 17.6852 12.5714C17.5994 12.6102 17.4816 12.7009 17.4816 12.7009L12.0961 18.0975C12.0085 18.1851 11.8654 18.1851 11.7777 18.0975L6.3633 12.6707C6.27444 12.5837 6.27444 12.4399 6.3633 12.3511L11.7777 6.92552C11.8654 6.83605 12.0085 6.83605 12.0961 6.92552L17.0638 11.9037C17.0638 11.9037 17.323 12.1363 17.568 12.1993C17.7932 12.2585 18.1282 12.029 18.1282 12.029L20.7407 9.39241ZM23.2582 5.85559L19.5591 2.16513C15.4287-1.82583 10.656 0.922425 10.656 0.922425C10.656 0.922425 12.6848-0.169103 15.2769 2.56681L21.3874 8.71614L23.1897 6.9286C23.1897 6.9286 23.4069 6.65588 23.4582 6.40845C23.5044 6.17768 23.2582 5.85559 23.2582 5.85559" fill="#3147a4" stroke="none"/></svg>

<svg viewBox="0 0 24 24" xmlns="http://www.w3.org/2000/svg"><path d="M20.74 9.392 13.848 2.5c-1.427-1.431-3.15-1.342-3.756-1.241C4.672 2.15.536 6.869.536 12.553.536 18.876 5.651 24 11.957 24c6.16 0 11.18-4.924 11.413-11.042.002-.07-.022-.281-.17-.376-.183-.114-.546-.071-.546-.071h-4.419s-.42 0-.55.06c-.086.04-.203.13-.203.13l-5.386 5.396a.226.226 0 0 1-.318 0l-5.415-5.426a.225.225 0 0 1 0-.32l5.415-5.425c.087-.09.23-.09.318 0l4.968 4.978s.259.232.504.295c.225.06.56-.17.56-.17l2.613-2.637Zm2.518-3.536-3.699-3.69C15.43-1.827 10.656.921 10.656.921s2.029-1.091 4.62 1.645l6.111 6.15 1.803-1.788s.217-.273.268-.52c.046-.231-.2-.553-.2-.553" fill="#3147a4"/></svg>
